images/reference/google.svg

<svg height="46" viewBox="0 0 46 46" width="46" xmlns="http://www.w3.org/2000/svg" xmlns:xlink="http://www.w3.org/1999/xlink"><defs><filter id="a" height="200%" width="200%" x="-50%" y="-50%"><feOffset dx="0" dy="1" in="SourceAlpha" result="shadowOffsetOuter1"/><feGaussianBlur in="shadowOffsetOuter1" result="shadowBlurOuter1" stdDeviation=".5"/><feColorMatrix in="shadowBlurOuter1" result="shadowMatrixOuter1" type="matrix" values="0 0 0 0 0   0 0 0 0 0   0 0 0 0 0  0 0 0 0.168 0"/><feOffset dx="0" dy="0" in="SourceAlpha" result="shadowOffsetOuter2"/><feGaussianBlur in="shadowOffsetOuter2" result="shadowBlurOuter2" stdDeviation=".5"/><feColorMatrix in="shadowBlurOuter2" result="shadowMatrixOuter2" type="matrix" values="0 0 0 0 0   0 0 0 0 0   0 0 0 0 0  0 0 0 0.084 0"/><feMerge><feMergeNode in="shadowMatrixOuter1"/><feMergeNode in="shadowMatrixOuter2"/><feMergeNode in="SourceGraphic"/></feMerge></filter><rect id="b" height="40" rx="2" width="40"/></defs><g fill="none" fill-rule="evenodd" transform="translate(-1 -1)"><path d="m1 1h46v46h-46z" fill="#4285f4" fill-opacity=".3"/><g filter="url(#a)" transform="translate(4 4)"><use fill="#fff" fill-rule="evenodd" xlink:href="#b"/><g fill="none"><use xlink:href="#b"/><use xlink:href="#b"/><use xlink:href="#b"/></g></g><g transform="translate(15 15)"><path d="m17.64 9.20454545c0-.63818181-.0572727-1.25181818-.1636364-1.84090909h-8.4763636v3.48136364h4.8436364c-.2086364 1.125-.8427273 2.0781818-1.7959091 2.7163636v2.2581819h2.9086363c1.7018182-1.5668182 2.6836364-3.874091 2.6836364-6.61500005z" fill="#4285f4"/><path d="m9 18c2.43 0 4.4672727-.8059091 5.9563636-2.1804545l-2.9086363-2.2581819c-.8059091.54-1.8368182.8590909-3.0477273.8590909-2.34409091 0-4.32818182-1.5831818-5.03590909-3.7104545h-3.00681818v2.3318182c1.48090909 2.9413636 4.52454545 4.9581818 8.04272727 4.9581818z" fill="#34a853"/><path d="m3.96409091 10.71c-.18-.54-.28227273-1.11681818-.28227273-1.71s.10227273-1.17.28227273-1.71v-2.33181818h-3.00681818c-.60954546 1.215-.95727273 2.58954545-.95727273 4.04181818 0 1.4522727.34772727 2.8268182.95727273 4.0418182z" fill="#fbbc05"/><path d="m9 3.57954545c1.3213636 0 2.5077273.45409091 3.4404545 1.3459091l2.5813637-2.58136364c-1.5586364-1.45227273-3.5959091-2.34409091-6.0218182-2.34409091-3.51818182 0-6.56181818 2.01681818-8.04272727 4.95818182l3.00681818 2.33181818c.70772727-2.12727273 2.69181818-3.71045455 5.03590909-3.71045455z" fill="#ea4335"/><path d="m0 0h18v18h-18z"/></g></g></svg>

<?xml version="1.0" encoding="UTF-8" standalone="no"?>
<svg width="46px" height="46px" viewBox="0 0 46 46" version="1.1" xmlns="http://www.w3.org/2000/svg" xmlns:xlink="http://www.w3.org/1999/xlink" xmlns:sketch="http://www.bohemiancoding.com/sketch/ns">
    <!-- Generator: Sketch 3.3.3 (12081) - http://www.bohemiancoding.com/sketch -->
    <title>btn_google_light_focus_ios</title>
    <desc>Created with Sketch.</desc>
    <defs>
        <filter x="-50%" y="-50%" width="200%" height="200%" filterUnits="objectBoundingBox" id="filter-1">
            <feOffset dx="0" dy="1" in="SourceAlpha" result="shadowOffsetOuter1"></feOffset>
            <feGaussianBlur stdDeviation="0.5" in="shadowOffsetOuter1" result="shadowBlurOuter1"></feGaussianBlur>
            <feColorMatrix values="0 0 0 0 0   0 0 0 0 0   0 0 0 0 0  0 0 0 0.168 0" in="shadowBlurOuter1" type="matrix" result="shadowMatrixOuter1"></feColorMatrix>
            <feOffset dx="0" dy="0" in="SourceAlpha" result="shadowOffsetOuter2"></feOffset>
            <feGaussianBlur stdDeviation="0.5" in="shadowOffsetOuter2" result="shadowBlurOuter2"></feGaussianBlur>
            <feColorMatrix values="0 0 0 0 0   0 0 0 0 0   0 0 0 0 0  0 0 0 0.084 0" in="shadowBlurOuter2" type="matrix" result="shadowMatrixOuter2"></feColorMatrix>
            <feMerge>
                <feMergeNode in="shadowMatrixOuter1"></feMergeNode>
                <feMergeNode in="shadowMatrixOuter2"></feMergeNode>
                <feMergeNode in="SourceGraphic"></feMergeNode>
            </feMerge>
        </filter>
        <rect id="path-2" x="0" y="0" width="40" height="40" rx="2"></rect>
    </defs>
    <g id="Google-Button" stroke="none" stroke-width="1" fill="none" fill-rule="evenodd" sketch:type="MSPage">
        <g id="9-PATCH" sketch:type="MSArtboardGroup" transform="translate(-668.000000, -160.000000)"></g>
        <g id="btn_google_light_focus" sketch:type="MSArtboardGroup" transform="translate(-1.000000, -1.000000)">
            <rect id="Rectangle-14" fill-opacity="0.3" fill="#4285F4" sketch:type="MSShapeGroup" x="1" y="1" width="46" height="46"></rect>
            <g id="button" sketch:type="MSLayerGroup" transform="translate(4.000000, 4.000000)" filter="url(#filter-1)">
                <g id="button-bg">
                    <use fill="#FFFFFF" fill-rule="evenodd" sketch:type="MSShapeGroup" xlink:href="#path-2"></use>
                    <use fill="none" xlink:href="#path-2"></use>
                    <use fill="none" xlink:href="#path-2"></use>
                    <use fill="none" xlink:href="#path-2"></use>
                </g>
            </g>
            <g id="logo_googleg_48dp" sketch:type="MSLayerGroup" transform="translate(15.000000, 15.000000)">
                <path d="M17.64,9.20454545 C17.64,8.56636364 17.5827273,7.95272727 17.4763636,7.36363636 L9,7.36363636 L9,10.845 L13.8436364,10.845 C13.635,11.97 13.0009091,12.9231818 12.0477273,13.5613636 L12.0477273,15.8195455 L14.9563636,15.8195455 C16.6581818,14.2527273 17.64,11.9454545 17.64,9.20454545 L17.64,9.20454545 Z" id="Shape" fill="#4285F4" sketch:type="MSShapeGroup"></path>
                <path d="M9,18 C11.43,18 13.4672727,17.1940909 14.9563636,15.8195455 L12.0477273,13.5613636 C11.2418182,14.1013636 10.2109091,14.4204545 9,14.4204545 C6.65590909,14.4204545 4.67181818,12.8372727 3.96409091,10.71 L0.957272727,10.71 L0.957272727,13.0418182 C2.43818182,15.9831818 5.48181818,18 9,18 L9,18 Z" id="Shape" fill="#34A853" sketch:type="MSShapeGroup"></path>
                <path d="M3.96409091,10.71 C3.78409091,10.17 3.68181818,9.59318182 3.68181818,9 C3.68181818,8.40681818 3.78409091,7.83 3.96409091,7.29 L3.96409091,4.95818182 L0.957272727,4.95818182 C0.347727273,6.17318182 0,7.54772727 0,9 C0,10.4522727 0.347727273,11.8268182 0.957272727,13.0418182 L3.96409091,10.71 L3.96409091,10.71 Z" id="Shape" fill="#FBBC05" sketch:type="MSShapeGroup"></path>
                <path d="M9,3.57954545 C10.3213636,3.57954545 11.5077273,4.03363636 12.4404545,4.92545455 L15.0218182,2.34409091 C13.4631818,0.891818182 11.4259091,0 9,0 C5.48181818,0 2.43818182,2.01681818 0.957272727,4.95818182 L3.96409091,7.29 C4.67181818,5.16272727 6.65590909,3.57954545 9,3.57954545 L9,3.57954545 Z" id="Shape" fill="#EA4335" sketch:type="MSShapeGroup"></path>
                <path d="M0,0 L18,0 L18,18 L0,18 L0,0 Z" id="Shape" sketch:type="MSShapeGroup"></path>
            </g>
            <g id="handles_square" sketch:type="MSLayerGroup"></g>
        </g>
    </g>
</svg>
